!!!OTL: AN DER SAALE HELLEM STRANDE
!!!ARE: Europa, Mitteleuropa, Deutschland
!!!SCT: B0527
!!!YEM: Copyright 1995, estate of Helmut Schaffrath.
**kern
*ICvox
*Ivox
*M3/4
*k[f#]
*G:
{8g
8a
=1
4b
4b
8a
8g
=2
4a
4a}
{8g
8a
=3
8b
8cc
4dd
8cc
8b
=4
4a
4r}
{8dd
8ee
=5
8dd
8cc
4a
8a
8a
=6
4b
4dd}
{8dd
8ee
=7
8dd
8cc
4a
8a
8a
=8
4b
4dd}
{8ee
8cc
=9
8b
8dd
4b
4a
=10
4g
4r}
==
!!!AGN: Wander - Lied
!!!ONB: ESAC (Essen Associative Code) Database: BOEHME
!!!AMT: simple triple
!!!AIN: vox
!!!EED: Helmut Schaffrath
!!!EEV: 1.0
*-
